X: 4
T: Below The Aigas Dam
C:Phil Cunningham
M:C
L:1/8
K:G
d>c||: B<G G>A G>A B<G| c>A B<d E>F G/F/E/D/|B,<D D>E D>E D>E G<A|
B<e e>f e2 d>c|B<G G>A G>A B<D| c>A B<d E>F G/F/E/D/|C>E E<A D>d c<A|
B2 G2 G2 d>c :||B<e e>f e>f g<e| d>e f<a g>a g/f/e/d/|
B<e e>f e>E G>A|B<d A>B G<E E>F|G>A B<d A<B D>B|
c>A B<d E>F G/F/E/D/|C>E E<A D>d c<A|1 B2 G2 G2 A2 :|2 B2 G2 G2 ||

%%sep 2 1 500

